X:246
T: FROEHLICH UND WOHLGEMUTH
N: B0293A
O: Europa, Mitteleuropa, Deutschland
R: Stimmungs - Lied, Freude, Jugend
M: 3/8
L: 1/16
K: A
 | c3BA2 | A2E2E2 |
d3cB2 | B2E2E2 |
c3de2 | f2B2B2 |
d2B2G2 | B3AA2 |
c3de2 | f2B2B2 |
d2B2G2 | B3AA2

